svg/fluentui-system-icons/ic_fluent_mail_16_regular.svg

<svg width="16" height="16" viewBox="0 0 16 16" fill="none" xmlns="http://www.w3.org/2000/svg">
<path d="M2 6.03807V11C2 12.1046 2.89543 13 4 13H12C13.1046 13 14 12.1046 14 11V5C14 3.89543 13.1046 3 12 3H4C2.89543 3 2 3.89543 2 5V6.03807C2 6.03809 2 6.03804 2 6.03807ZM4 4H12C12.5523 4 13 4.44772 13 5V5.73987L8.0001 8.43212L3 5.73976V5C3 4.44772 3.44772 4 4 4ZM3 6.87552L7.76305 9.44024C7.91104 9.51992 8.08916 9.51992 8.23715 9.44024L13 6.87562V11C13 11.5523 12.5523 12 12 12H4C3.44772 12 3 11.5523 3 11V6.87552Z" fill="#212121"/>
</svg>

<svg xmlns="http://www.w3.org/2000/svg" width="16" height="16"><path d="M2 6.038V11a2 2 0 0 0 2 2h8a2 2 0 0 0 2-2V5a2 2 0 0 0-2-2H4a2 2 0 0 0-2 2v1.038ZM4 4h8a1 1 0 0 1 1 1v.74L8 8.432 3 5.74V5a1 1 0 0 1 1-1ZM3 6.876 7.763 9.44a.5.5 0 0 0 .474 0L13 6.876V11a1 1 0 0 1-1 1H4a1 1 0 0 1-1-1V6.876Z"/></svg>
